X:1
T:Title
%%score { 1 | ( 2 3 ) }
L:1/8
Q:1/4=100
M:2/2
K:F
V:1 treble nm="Grand Piano"
V:2 bass 
V:3 bass 
V:1
 F3 G A2 A2 | AGGF G2 G2 | F3 A c3 A | GF[B,CG]A [A,CF]4 | [FA]3 [GB] [Ac]2 [Ac]2 | %5
w: William~Arnold * * *|||||
 [Ac]B[GB]A [GB]2 [GB]2 | [EG]3 [GB] [FA]2 [Ac]2 | [Ac]B[GB]A [FA]2 G2 | F3 G A2 A2 | AGGF G2 G2 | %10
w: |||||
 F3 A c3 A | GF[B,CG]A F4 |] %12
w: ||
V:2
 [F,A,]3 [F,B,F] [F,CF]2 [F,C]2 | CB,B,A, [C,B,C]2 [C,B,C]2 | [F,A,C]3 [F,CF] [F,A,F]3 [F,C] | %3
 B, .A,2 C F,4 | F,3 F, F,2 F,2 | z .G2 F C,2 C,2 | C,3 C, F,2 F,2 | %7
 z[K:treble] .G2 F[K:bass] z2 E2 | [F,A,]3 [F,B,F] [F,CF]2 [F,C]2 | CB,B,A, [C,B,C]2 [C,B,C]2 | %10
 [F,A,C]3 [F,CF] [F,A,F]3 [F,CD] | B, .A,2 C [F,A,C]4 |] %12
V:3
 x8 | C,2 [C,C]2 z4 | x8 | [C,C]2 C,2 z4 | x8 | C,2 C,2 z4 | x8 | E,2[K:treble] F,2[K:bass] C,4 | %8
 x8 | C,2 [C,C]2 z4 | x8 | [C,C]2 C,2 z4 |] %12

